icon.svg

<svg clip-rule="evenodd" fill-rule="evenodd" stroke-linejoin="round" stroke-miterlimit="2" viewBox="0 0 64 64" xmlns="http://www.w3.org/2000/svg"><path d="m-.00002 0h64v64h-64z" fill="none"/><g fill-rule="nonzero"><path d="m30 6h-9.178l2 2h7.178v22h-22v-7.178l-2-2v9.178c0 1.104.896 2 2 2h22c1.104 0 2-.896 2-2v-22c0-1.104-.896-2-2-2z" fill="#167bba" transform="matrix(-2 0 0 2 69.9688 -3.426)"/><path d="m69.122 94.146-40.625 33.854 40.625 33.854c1.823 1.519 2.878 3.773 2.878 6.146 0 4.388-3.611 8-8 8-1.871 0-3.685-.657-5.122-1.855l-48-40c-1.822-1.519-2.878-3.773-2.878-6.145s1.056-4.626 2.878-6.145l48-40c1.445-1.224 3.278-1.896 5.171-1.896 4.389 0 8 3.611 8 8 0 2.395-1.075 4.667-2.927 6.186z" fill="#88c200" transform="matrix(.212644 0 0 .295274 22.266986662 -12.036)"/><path d="m245.122 121.855-48-40c-1.445-1.224-3.278-1.896-5.171-1.896-4.389 0-8 3.611-8 8 0 2.395 1.075 4.667 2.927 6.186l40.625 33.855-40.625 33.854c-1.823 1.519-2.878 3.773-2.878 6.146 0 4.388 3.611 8 8 8 1.871 0 3.685-.657 5.122-1.855l48-40c1.822-1.519 2.878-3.773 2.878-6.145s-1.056-4.626-2.878-6.145z" fill="#c44d58" transform="matrix(.212644 0 0 .295274 5.232394788 -12.036)"/></g></svg>

<svg viewBox="0 0 256 256" xmlns="http://www.w3.org/2000/svg" style="fill-rule:evenodd;clip-rule:evenodd;stroke-linejoin:round;stroke-miterlimit:2;">
    <path d="M69.122,94.146L28.497,128L69.122,161.854C70.945,163.373 72,165.627 72,168C72,172.388 68.389,176 64,176C62.129,176 60.315,175.343 58.878,174.145L10.878,134.145C9.056,132.626 8,130.372 8,128C8,125.628 9.056,123.374 10.878,121.855L58.878,81.855C60.323,80.631 62.156,79.959 64.049,79.959C68.438,79.959 72.049,83.57 72.049,87.959C72.049,90.354 70.974,92.626 69.122,94.145L69.122,94.146Z" style="fill:rgb(255,166,95);fill-rule:nonzero;"/>
    <path d="M162.734,32.482C158.61,30.985 153.983,33.143 152.481,37.266L88.481,213.266C88.162,214.142 87.999,215.068 87.999,216C87.999,220.389 91.611,224.001 96,224.001C99.356,224.001 102.372,221.888 103.519,218.734L167.519,42.734C167.838,41.858 168.001,40.932 168.001,40C168.001,36.643 165.888,33.628 162.734,32.481L162.734,32.482Z" style="fill:rgb(193,17,255);fill-rule:nonzero;"/>
    <path d="M245.122,121.855L197.122,81.855C195.677,80.631 193.844,79.959 191.951,79.959C187.562,79.959 183.951,83.57 183.951,87.959C183.951,90.354 185.026,92.626 186.878,94.145L227.503,128L186.878,161.854C185.055,163.373 184,165.627 184,168C184,172.388 187.611,176 192,176C193.871,176 195.685,175.343 197.122,174.145L245.122,134.145C246.944,132.626 248,130.372 248,128C248,125.628 246.944,123.374 245.122,121.855Z" style="fill:rgb(95,175,167);fill-rule:nonzero;"/>
</svg>
